src/assets/images/partners/binancechain.svg

<svg width="135" height="36" viewBox="0 0 135 36" fill="none" xmlns="http://www.w3.org/2000/svg">
<g clip-path="url(#clip0)">
<path d="M38.4315 4.32812H44.592C46.1423 4.32812 47.3254 4.73262 48.019 5.46071C48.7534 6.06745 49.0798 6.91689 49.0798 7.72588C49.0798 8.04947 49.0798 8.45397 48.9574 8.77756C48.7534 9.30341 48.427 9.82925 48.019 10.2337C47.815 10.436 47.611 10.5573 47.407 10.6382C48.1414 10.8405 48.7534 11.245 49.2837 11.7708C49.6917 12.2967 49.8957 12.9034 49.8957 13.8337C49.8957 14.3596 49.7733 14.9663 49.5693 15.3708C49.3653 15.7753 48.9574 16.1798 48.5086 16.5034C47.9782 16.827 47.4478 17.0292 46.9583 17.2315C46.3463 17.4337 45.6119 17.4337 44.8776 17.4337H38.5539V4.32812H38.4315ZM44.0616 9.74835C44.592 9.74835 45.1224 9.627 45.6119 9.42475C46.0199 9.22251 46.2239 8.81801 46.2239 8.37307C46.2239 7.96857 46.0199 7.56408 45.6935 7.32138C45.2856 6.99779 44.7552 6.91689 44.2248 6.99779H41.2874V9.7888H44.0208V9.74835H44.0616ZM44.796 15.0068C45.3264 15.0068 45.8567 14.8854 46.3463 14.6832C46.7543 14.4809 46.9583 14.0764 46.8767 13.5506C46.8767 13.1461 46.6727 12.7416 46.3463 12.4989C46.0199 12.2967 45.4079 12.0944 44.6736 12.0944H41.2466V15.0068H44.796Z" fill="#F3BA2F"/>
<path d="M56.5049 4.32812H53.5675V17.5955H56.5049V4.32812Z" fill="#F3BA2F"/>
<path d="M60.9927 4.32812H63.6853L69.9682 12.5394V4.32812H72.9057V17.5955H70.3762L63.8077 9.22251V17.5955H60.9927V4.32812Z" fill="#F3BA2F"/>
<path d="M81.7588 4.24707H84.4923L90.2448 17.5954H87.2257L85.961 14.6021H80.3309L79.0662 17.5954H76.0471L81.7588 4.24707ZM84.9003 12.0943L83.1459 7.76617L81.3916 12.0943H84.9003Z" fill="#F3BA2F"/>
<path d="M93.3455 4.32812H96.0789L102.321 12.5394V4.32812H105.258V17.5955H102.729L96.2829 9.22251V17.5955H93.3455V4.32812Z" fill="#F3BA2F"/>
<path d="M115.907 17.7978C114.968 17.7978 114.03 17.5956 113.173 17.272C111.5 16.5439 110.236 15.2899 109.501 13.6315C109.175 12.8225 108.971 11.8922 108.971 10.9214C108.971 9.18208 109.705 7.4023 110.97 6.06747C111.582 5.46073 112.316 4.93489 113.173 4.61129C114.111 4.2068 115.05 4.08545 115.988 4.08545C116.519 4.08545 117.131 4.08545 117.661 4.2068C118.191 4.32815 118.599 4.40904 119.007 4.61129C119.415 4.81354 119.823 5.01579 120.15 5.21803C120.476 5.42028 120.884 5.74388 121.21 6.02702L119.456 8.21129C118.926 7.8068 118.395 7.4023 117.906 7.07871C117.375 6.75511 116.763 6.67421 116.151 6.67421C115.621 6.67421 115.091 6.79556 114.601 6.99781C114.071 7.20006 113.663 7.52365 113.336 7.92815C113.01 8.33264 112.724 8.73713 112.52 9.26298C112.316 9.78882 112.194 10.3147 112.194 10.8001C112.194 11.3259 112.316 11.9326 112.52 12.4585C112.724 12.9843 112.928 13.3888 113.336 13.7933C114.071 14.6023 115.091 15.0472 116.151 15.0472C116.763 15.0472 117.498 14.9259 118.15 14.6428C118.681 14.3192 119.293 13.9147 119.701 13.5102L121.577 15.3708C121.251 15.6944 120.843 16.0989 120.517 16.4225C120.109 16.7461 119.701 16.9484 119.252 17.1506C118.844 17.3529 118.314 17.5551 117.783 17.6765C117.049 17.7978 116.396 17.7978 115.907 17.7978Z" fill="#F3BA2F"/>
<path d="M124.882 4.32812H134.878V6.91689H127.697V9.627H134.062V12.2158H127.697V15.0068H135V17.5955H124.882V4.32812Z" fill="#F3BA2F"/>
<path d="M42.1849 30.6199C41.4506 30.6199 40.7162 30.4986 40.1042 30.2155C39.4923 30.0132 38.8395 29.6087 38.2275 29.0829L39.2883 27.9503C39.6963 28.3548 40.1042 28.557 40.6346 28.8806C41.165 29.0829 41.6954 29.2042 42.1849 29.2042C42.5929 29.2042 43.0009 29.0829 43.4497 28.8806C43.776 28.6784 43.8576 28.3548 43.8576 28.0716C43.8576 27.9503 43.8576 27.748 43.7352 27.6671C43.6129 27.5458 43.5313 27.3435 43.4089 27.2626C43.2049 27.1413 43.0009 27.0604 42.7969 26.9391C42.4705 26.8177 42.0625 26.7368 41.7362 26.6155C41.3282 26.4941 40.7978 26.4132 40.3898 26.211C40.0634 26.0896 39.6555 25.8874 39.4515 25.6851C39.2475 25.4829 39.0435 25.2806 38.8395 24.957C38.6355 24.5525 38.6355 24.148 38.6355 23.8244C38.6355 23.42 38.7579 23.0964 38.8395 22.6919C38.9619 22.3683 39.2475 22.0851 39.4515 21.8829C39.7779 21.6806 40.0634 21.4784 40.5122 21.357C40.9202 21.2357 41.3282 21.1548 41.777 21.1548C42.3889 21.1548 43.0417 21.2761 43.6537 21.4784C44.184 21.6806 44.7144 22.0042 45.204 22.2874L44.388 23.5413C43.98 23.2177 43.5721 23.0155 43.1233 22.8132C42.7153 22.611 42.3073 22.611 41.8585 22.611C41.4506 22.611 41.0426 22.7323 40.7162 22.9346C40.5122 23.1368 40.3082 23.4604 40.3082 23.7435C40.3082 23.9458 40.3082 24.0671 40.4306 24.2694C40.553 24.3907 40.6346 24.593 40.757 24.6739C40.961 24.7952 41.165 24.8761 41.4914 24.9975C41.8177 25.1188 42.1033 25.1997 42.6337 25.3211C43.0417 25.4424 43.4497 25.5233 43.98 25.7256C44.3064 25.8469 44.592 26.0492 44.9184 26.2514C45.1224 26.4537 45.3264 26.7773 45.4488 26.9795C45.5711 27.3031 45.6527 27.5862 45.6527 28.0312C45.6527 28.4761 45.5304 28.8402 45.4488 29.1638C45.2448 29.4874 45.0408 29.7705 44.7144 30.0941C44.388 30.2964 44.1024 30.4986 43.6537 30.6199C43.1233 30.5391 42.6337 30.6199 42.1849 30.6199Z" fill="#F3BA2F"/>
<path d="M47.4071 21.2358H49.2022L52.0173 25.5639L54.9139 21.2358H56.709V30.5392H55.0363V23.7842L52.0989 28.1527H52.0173L49.0798 23.7842V30.5392H47.4071V21.2358Z" fill="#F3BA2F"/>
<path d="M62.339 21.1147H63.8894L67.9691 30.4181H66.2148L65.2765 28.1529H60.9111L59.9728 30.4181H58.3L62.339 21.1147ZM64.7461 26.8181L63.0734 23.0968L61.5231 26.8181H64.7461Z" fill="#F3BA2F"/>
<path d="M69.6419 21.2358H73.8441C74.3745 21.2358 74.9049 21.3572 75.3944 21.4381C75.8024 21.5594 76.2104 21.8426 76.5368 22.1662C76.7408 22.3684 76.9447 22.692 77.1487 23.0965C77.2711 23.4201 77.3527 23.8246 77.3527 24.2291C77.3527 24.5527 77.2303 24.9572 77.1487 25.2808C77.0263 25.6044 76.8224 25.8066 76.7408 26.0898C76.5368 26.292 76.3328 26.4943 76.0064 26.6965C75.68 26.8988 75.3944 27.0201 75.068 27.101L77.5567 30.6201H75.5576L73.2729 27.4246H71.1922V30.6201H69.5195L69.6419 21.2358ZM73.7217 25.7662C74.2521 25.7662 74.7825 25.6448 75.068 25.3617C75.3944 25.0381 75.5984 24.6336 75.5984 24.2291C75.5984 23.8246 75.3944 23.4201 75.068 23.0965C74.6601 22.7729 74.1297 22.692 73.5993 22.692H71.1922V25.8066H73.7217V25.7662Z" fill="#F3BA2F"/>
<path d="M81.6365 22.6516H78.6174V21.2358H86.2466V22.6516H83.2276V30.5392H81.5549L81.6365 22.6516Z" fill="#F3BA2F"/>
<path d="M96.3645 30.6202C95.7525 30.6202 95.0997 30.4989 94.4878 30.2157C93.3454 29.6899 92.4071 28.8809 91.9991 27.7483C91.7951 27.1416 91.5911 26.4944 91.6727 25.8876C91.6727 25.2809 91.7951 24.6337 91.9991 24.027C92.4071 22.8944 93.3454 21.964 94.4878 21.4382C95.0997 21.2359 95.7525 21.0337 96.4869 21.0337C96.8948 21.0337 97.3028 21.0337 97.6292 21.155C97.9556 21.2764 98.2412 21.3573 98.5676 21.4786C98.8939 21.6 99.0979 21.8022 99.3835 21.8831C99.5875 22.0854 99.9139 22.2876 100.118 22.4899L99.0571 23.7438C98.7307 23.4202 98.3228 23.1371 97.9148 22.9348C97.5068 22.7326 96.9764 22.6112 96.4461 22.6112C96.0381 22.6112 95.6301 22.7326 95.1813 22.8135C94.7734 23.0157 94.447 23.218 94.1206 23.5416C93.7942 23.8652 93.5902 24.1483 93.5086 24.5932C93.3862 24.9977 93.3046 25.4022 93.3046 25.8472C93.3046 26.2517 93.427 26.6562 93.5086 27.1011C93.631 27.5056 93.835 27.8292 94.1206 28.1528C94.447 28.4764 94.7326 28.6786 95.1813 28.8809C95.5893 29.0831 95.9973 29.2045 96.4461 29.0831C96.9764 29.0831 97.5068 28.9618 97.9148 28.7595C98.3228 28.5573 98.7307 28.2337 99.1795 27.8292L100.24 28.8809L99.5059 29.609C99.1795 29.8112 98.9755 30.0135 98.6899 30.1348C98.3636 30.2562 98.078 30.4584 97.6292 30.4584C97.2212 30.6202 96.7724 30.6202 96.3645 30.6202Z" fill="#F3BA2F"/>
<path d="M101.913 21.2358H103.463V25.0381H107.951V21.2358H109.624V30.5392H107.951V26.6156H103.463V30.5392H101.913V21.2358Z" fill="#F3BA2F"/>
<path d="M115.376 21.1147H116.927L121.006 30.4181H119.252L118.314 28.1529H113.948L113.01 30.4181H111.337L115.376 21.1147ZM117.661 26.8181L116.111 23.0968L114.56 26.8181H117.661Z" fill="#F3BA2F"/>
<path d="M124.352 21.2358H122.679V30.5392H124.352V21.2358Z" fill="#F3BA2F"/>
<path d="M126.84 21.2358H128.309L133.327 27.6269V21.2358H135V30.5392H133.654L128.513 23.9055V30.5392H126.84V21.2358Z" fill="#F3BA2F"/>
<path d="M19.0118 29.8921V33.9371L15.4624 36L12.0354 33.9371V29.8921L15.4624 31.9551L19.0118 29.8921ZM0 15.9371L3.42702 18V24.9169L9.3835 28.4764V32.5213L0 27.0202V15.9371ZM30.884 15.9371V27.0202L21.4189 32.4809V28.436L27.3345 24.9573V18L30.884 15.9371ZM21.4189 10.436L24.9683 12.4989V16.5438L19.0118 20.0629V27.1011L15.5848 29.164L12.117 27.1011V20.0629L5.95648 16.5438V12.5393L9.50589 10.4764L15.4624 13.9955L21.4189 10.436ZM5.95648 19.4562L9.3835 21.5191V25.564L5.95648 23.5011V19.4562ZM24.9683 19.4562V23.5011L21.5413 25.564V21.5191L24.9683 19.4562ZM3.42702 6.91685L6.97643 8.97978L3.42702 11.0427V15.0876L0 13.0247V8.97978L3.42702 6.91685ZM27.4569 6.91685L31.0063 8.97978V13.0247L27.4569 15.0876V11.0427L24.0299 8.97978L27.4569 6.91685ZM15.4624 6.91685L19.0118 8.97978L15.4624 11.0427L12.0354 8.97978L15.4624 6.91685ZM15.4624 0L24.9683 5.50112L21.5413 7.56404L15.544 4.04494L9.50589 7.56404L6.07888 5.50112L15.4624 0Z" fill="#F3BA2F"/>
</g>
<defs>
<clipPath id="clip0">
<rect width="135" height="36" fill="white"/>
</clipPath>
</defs>
</svg>

<svg xmlns="http://www.w3.org/2000/svg" width="135" height="36" fill="none" viewBox="0 0 135 36"><g fill="#F3BA2F" clip-path="url(#a)"><path d="M38.432 4.328h6.16c1.55 0 2.733.405 3.427 1.133a2.91 2.91 0 0 1 1.06 2.265c0 .323 0 .728-.122 1.052a4.3 4.3 0 0 1-.938 1.456 1.8 1.8 0 0 1-.612.404c.734.203 1.346.607 1.877 1.133.408.526.612 1.132.612 2.063 0 .526-.123 1.132-.327 1.537-.204.404-.612.809-1.06 1.132-.53.324-1.061.526-1.55.729-.613.202-1.347.202-2.081.202h-6.324V4.328zm5.63 5.42c.53 0 1.06-.121 1.55-.323.408-.202.612-.607.612-1.052a1.34 1.34 0 0 0-.53-1.052c-.408-.323-.939-.404-1.47-.323h-2.937v2.79h2.734v-.04zm.734 5.259c.53 0 1.06-.122 1.55-.324.408-.202.612-.607.53-1.132 0-.405-.203-.81-.53-1.052-.326-.202-.938-.405-1.672-.405h-3.427v2.913zM56.505 4.328h-2.937v13.268h2.937zm4.488 0h2.692l6.283 8.211V4.33h2.938v13.267h-2.53l-6.568-8.373v8.373h-2.815zm20.766-.081h2.733l5.753 13.348h-3.02l-1.264-2.993h-5.63l-1.265 2.993h-3.019zm3.141 7.847-1.754-4.328-1.754 4.328zm8.446-7.766h2.733l6.242 8.211V4.33h2.937v13.267h-2.529l-6.446-8.373v8.373h-2.937zm22.561 13.47c-.939 0-1.877-.202-2.734-.526a7 7 0 0 1-3.672-3.64 7.3 7.3 0 0 1-.53-2.71c0-1.74.734-3.52 1.999-4.855.612-.606 1.346-1.132 2.203-1.456.938-.404 1.877-.526 2.815-.526.531 0 1.143 0 1.673.122.53.121.938.202 1.346.404.408.203.816.405 1.143.607a9 9 0 0 1 1.06.809l-1.754 2.184a30 30 0 0 0-1.55-1.132c-.531-.324-1.143-.405-1.755-.405-.53 0-1.06.122-1.55.324-.53.202-.938.526-1.265.93-.326.405-.612.81-.816 1.335-.204.526-.326 1.052-.326 1.537 0 .526.122 1.133.326 1.659.204.525.408.93.816 1.334a3.8 3.8 0 0 0 2.815 1.254 5.2 5.2 0 0 0 1.999-.404c.531-.324 1.143-.728 1.551-1.133l1.876 1.86-1.06 1.053c-.408.323-.816.525-1.265.728a7 7 0 0 1-1.469.526c-.734.12-1.387.12-1.876.12m8.975-13.469h9.996v2.589h-7.181v2.71h6.365v2.589h-6.365v2.79H135v2.59h-10.118zM42.185 30.62c-.734 0-1.469-.121-2.08-.405-.613-.202-1.265-.606-1.877-1.132l1.06-1.133c.408.405.816.607 1.347.93.53.203 1.06.324 1.55.324.408 0 .816-.121 1.265-.323.326-.203.408-.526.408-.81 0-.12 0-.323-.123-.404-.122-.121-.204-.324-.326-.404-.204-.122-.408-.203-.612-.324-.326-.121-.734-.202-1.06-.323-.409-.122-.94-.203-1.347-.405-.327-.121-.734-.324-.938-.526a4 4 0 0 1-.612-.728c-.205-.405-.205-.809-.205-1.133 0-.404.123-.728.205-1.132.122-.324.407-.607.611-.81.327-.201.612-.404 1.061-.525a4.4 4.4 0 0 1 1.265-.202 6.1 6.1 0 0 1 1.877.323c.53.203 1.06.526 1.55.81l-.816 1.253c-.408-.323-.816-.526-1.265-.728-.408-.202-.816-.202-1.264-.202-.408 0-.816.121-1.143.324-.204.202-.408.525-.408.809 0 .202 0 .323.123.525.122.122.204.324.326.405.204.121.408.202.734.323.327.122.612.203 1.143.324.408.121.816.202 1.346.405.326.12.612.323.938.525.204.203.408.526.53.729.123.323.205.606.205 1.051s-.123.81-.204 1.133a5 5 0 0 1-.735.93c-.326.202-.612.405-1.06.526-.53-.08-1.02 0-1.47 0m5.223-9.384h1.795l2.815 4.328 2.897-4.328h1.795v9.303h-1.673v-6.755L52.1 28.153h-.082l-2.937-4.369v6.755h-1.673zm14.932-.121h1.55l4.08 9.303h-1.754l-.939-2.265h-4.365l-.938 2.265H58.3zm2.407 5.703-1.673-3.721-1.55 3.721zm4.896-5.582h4.202c.53 0 1.06.121 1.55.202.408.121.816.405 1.143.728.204.202.408.526.612.93.122.324.204.729.204 1.133 0 .324-.123.728-.204 1.052-.123.323-.327.526-.408.809-.204.202-.408.404-.735.607a3.1 3.1 0 0 1-.938.404l2.489 3.52h-2l-2.284-3.196h-2.08v3.195h-1.674zm4.08 4.53c.53 0 1.06-.121 1.346-.404.326-.324.53-.728.53-1.133 0-.404-.204-.809-.53-1.133-.408-.323-.938-.404-1.469-.404h-2.407v3.115h2.53zm7.915-3.114h-3.02v-1.416h7.63v1.416h-3.02v7.887h-1.672zm14.728 7.968a4.5 4.5 0 0 1-1.877-.404c-1.143-.526-2.08-1.335-2.489-2.468-.204-.606-.408-1.254-.326-1.86 0-.607.122-1.254.326-1.861.408-1.133 1.346-2.063 2.489-2.589.612-.202 1.264-.404 1.999-.404.408 0 .816 0 1.142.121.327.121.612.202.939.324.326.121.53.323.816.404.204.202.53.405.734.607l-1.06 1.254a4.5 4.5 0 0 0-1.143-.81 3.4 3.4 0 0 0-1.469-.323c-.408 0-.816.122-1.265.203-.408.202-.734.404-1.06.728s-.53.606-.612 1.051a4.3 4.3 0 0 0-.204 1.254c0 .405.122.81.204 1.254.122.405.326.728.612 1.052.326.323.612.526 1.06.728.408.202.816.323 1.265.202.53 0 1.06-.121 1.469-.323.408-.203.816-.526 1.264-.93l1.061 1.05-.734.729c-.326.202-.53.404-.816.526-.326.121-.612.323-1.06.323-.409.162-.858.162-1.265.162m5.548-9.384h1.55v3.802h4.488v-3.802h1.673v9.303h-1.673v-3.923h-4.488v3.923h-1.55zm13.463-.121h1.551l4.079 9.303h-1.754l-.938-2.265h-4.366l-.938 2.265h-1.673zm2.285 5.703-1.55-3.721-1.551 3.721zm6.691-5.582h-1.673v9.303h1.673zm2.488 0h1.469l5.018 6.39v-6.39H135v9.303h-1.346l-5.141-6.634v6.634h-1.673zM19.012 29.892v4.045L15.462 36l-3.427-2.063v-4.045l3.427 2.063zM0 15.937 3.427 18v6.917l5.956 3.56v4.044L0 27.021zm30.884 0V27.02l-9.465 5.46v-4.044l5.915-3.479V18zm-9.465-5.501 3.55 2.063v4.045l-5.957 3.519V27.1l-3.427 2.063-3.468-2.063v-7.038l-6.16-3.52V12.54l3.549-2.063 5.956 3.52zm-15.463 9.02 3.427 2.063v4.045l-3.427-2.063zm19.012 0v4.045l-3.427 2.063v-4.045zM3.427 6.916l3.55 2.064-3.55 2.063v4.045L0 13.025V8.98zm24.03 0 3.55 2.064v4.045l-3.55 2.063v-4.045L24.03 8.98zm-11.995 0 3.55 2.064-3.55 2.063-3.427-2.063zm0-6.916 9.506 5.501-3.427 2.063-5.997-3.52-6.038 3.52-3.427-2.063z"/></g><defs><clipPath id="a"><path fill="#fff" d="M0 0h135v36H0z"/></clipPath></defs></svg>
